Newaita-dark/apps/16/libreoffice-draw.svg

<svg height="16" viewBox="0 0 16 16" width="16" xmlns="http://www.w3.org/2000/svg" xmlns:xlink="http://www.w3.org/1999/xlink"><linearGradient id="a" gradientTransform="matrix(.0372059 0 0 .031253 -1.315168 6.719393)" gradientUnits="userSpaceOnUse" x1="254" x2="254" y1="233.5" y2="254.666672"><stop offset="0" stop-opacity=".27451"/><stop offset="1" stop-opacity="0"/></linearGradient><linearGradient id="b"><stop offset="0" stop-opacity=".313726"/><stop offset=".222222" stop-opacity=".27451"/><stop offset="1" stop-opacity="0"/></linearGradient><radialGradient id="c" cx="450.908936" cy="189.579361" gradientTransform="matrix(.00000009 -.0390662 -.0703192 -.00000005 25.238424 31.797666)" gradientUnits="userSpaceOnUse" r="21.166656" xlink:href="#b"/><radialGradient id="d" cx="450.908936" cy="189.579361" gradientTransform="matrix(-.00000009 .0390662 .0703192 .00000005 -9.361907 -3.763739)" gradientUnits="userSpaceOnUse" r="21.166656" xlink:href="#b"/><radialGradient id="e" cx="450.908936" cy="189.579361" gradientTransform="matrix(-.00000009 -.0390662 .0703192 -.00000005 -9.361907 31.797666)" gradientUnits="userSpaceOnUse" r="21.166656" xlink:href="#b"/><radialGradient id="f" cx="450.908936" cy="189.579361" gradientTransform="matrix(.00000009 .0390662 -.0703192 .00000005 25.238423 -3.76374)" gradientUnits="userSpaceOnUse" r="21.166656" xlink:href="#b"/><linearGradient id="g"><stop offset="0" stop-color="#ffa726"/><stop offset="1" stop-color="#ffb74d"/></linearGradient><linearGradient id="h" gradientUnits="userSpaceOnUse" x1="7.9382592" x2="7.9382592" xlink:href="#g" y1="14.01696600048" y2="1.4480552201"/><linearGradient id="i" gradientUnits="userSpaceOnUse" x1="7.9382592" x2="7.9382592" y1="13.35544440048" y2="2.1095768201"><stop offset="0" stop-color="#e0e0e0"/><stop offset="1" stop-color="#eee"/></linearGradient><linearGradient id="j" gradientUnits="userSpaceOnUse" x1="7.01510925" x2="7.01510925" xlink:href="#g" y1="10.2863535" y2="6.97874434375"/><path d="m3.804688 14.015625h8.269531v.664063h-8.269531zm0 0" fill="url(#a)"/><path d="m12.074219 14.015625h1.320312v-.660156h-1.320312zm0 0" fill="url(#c)"/><path d="m3.804688 14.015625h-1.324219v.664063h1.324219zm0 0" fill="url(#d)"/><path d="m3.804688 14.015625h-1.324219v-.660156h1.324219zm0 0" fill="url(#e)"/><path d="m12.074219 14.015625h1.320312v.664063h-1.320312zm0 0" fill="url(#f)"/><path d="m3.308594 1.449219c-.367188 0-.664063.292969-.664063.660156v11.246094c0 .367187.296875.660156.664063.660156h9.261718c.363282 0 .660157-.292969.660157-.660156v-7.527344l-4.378907-4.378906zm6.945312 0 2.976563 2.976562v-2.316406c0-.367187-.296875-.660156-.660157-.660156zm0 0" fill="url(#h)"/><path d="m3.636719 2.109375c-.179688 0-.328125.148437-.328125.332031v10.582032c0 .183593.148437.332031.328125.332031h8.601562c.183594 0 .332031-.148438.332031-.332031v-6.945313l-3.96875-3.96875zm0 0" fill="url(#i)"/><path d="m3.308594 1.449219c-.367188 0-.664063.292969-.664063.660156v.164063c0-.363282.296875-.660157.664063-.660157h5.542968l4.378907 4.378907v-.164063l-4.378907-4.378906zm6.945312 0 .164063.164062h2.152343c.363282 0 .660157.296875.660157.660157v-.164063c0-.367187-.296875-.660156-.660157-.660156zm0 0" fill="#fff" fill-opacity=".588235"/><path d="m3.636719 2.109375c-.179688 0-.328125.148437-.328125.332031v.246094c0-.183594.148437-.328125.328125-.328125h4.964843l3.96875 3.96875v-.25l-3.96875-3.96875zm0 0" fill-opacity=".235294"/><path d="m3.308594 13.035156v.15625c0 .183594.148437.332032.328125.332032h8.601562c.183594 0 .332031-.148438.332031-.332032v-.15625c0 .183594-.148437.332032-.332031.332032h-8.601562c-.179688 0-.328125-.148438-.328125-.332032zm0 0" fill="#fff" fill-opacity=".392157"/><path d="m439.800544 255.093763c-21.73021 0-39.681252 17.951043-39.681252 40.153648v1279.72038c0 22.202605 17.951042 40.153648 39.681252 40.153648h1040.21568c22.202605 0 40.153648-17.951043 40.153648-40.153648v-839.919836l-479.954192-479.954192zm0 0" fill="none" stroke="#212121" stroke-linecap="round" stroke-linejoin="round" stroke-width="11.338583" transform="scale(.00826902)"/><path d="m10.253906 1.449219 2.976563 2.976562v-.164062l-2.816407-2.8125zm-7.609375 11.746093v.160157c0 .367187.296875.660156.664063.660156h9.261718c.363282 0 .660157-.292969.660157-.660156v-.160157c0 .363282-.296875.660157-.660157.660157h-9.261718c-.367188 0-.664063-.296875-.664063-.660157zm0 0" fill-opacity=".235294"/><path d="m400.119292 175.258863c-44.405211 0-80.307296 35.42969-80.307296 79.8349v1360.027676c0 44.405211 35.902085 79.8349 80.307296 79.8349h1120.05058c43.932814 0 79.8349-35.429689 79.8349-79.8349v-910.306819l-529.555757-529.555757zm839.919836 0 359.965644 359.965644v-280.130744c0-44.40521-35.902086-79.8349-79.8349-79.8349zm0 0" fill="none" stroke="#212121" stroke-linecap="round" stroke-linejoin="round" stroke-width="11.338583" transform="scale(.00826902)"/><path d="m7.128906 5.183594c-.914062 0-1.664062.75-1.664062 1.667968 0 .378907.128906.730469.34375 1.011719l.394531-.691406c.117187-.203125.328125-.335937.5625-.34375.039063-.003906.078125-.003906.117187.003906.015626-.039062.035157-.070312.058594-.101562.125-.144531.3125-.234375.519532-.234375h1.296874c-.164062-.75-.832031-1.3125-1.628906-1.3125zm.628906 1.792968c-.101562 0-.195312.046876-.257812.117188.078125.058594.144531.128906.191406.214844l1.324219 2.316406c.128906.222656.105469.480469-.015625.683594h1.402344c.191406 0 .34375-.152344.34375-.34375v-2.644532c0-.191406-.152344-.34375-.34375-.34375zm-.886718.332032c-.003906 0-.007813 0-.011719 0-.117187.003906-.222656.070312-.28125.171875l-1.324219 2.316406c-.128906.226563.035156.511719.300782.511719h2.644531c.261719 0 .429687-.285156.296875-.511719l-1.324219-2.316406c-.058594-.109375-.175781-.175781-.300781-.171875zm0 0" fill="url(#j)"/><path d="m7.128906 5.183594c-.914062 0-1.664062.75-1.664062 1.667968 0 .039063 0 .082032.003906.121094.0625-.859375.785156-1.539062 1.660156-1.539062.707032 0 1.3125.441406 1.554688 1.0625h.074218c-.164062-.75-.832031-1.3125-1.628906-1.3125zm.628906 1.792968c-.101562 0-.195312.046876-.257812.117188.054688.042969.105469.089844.148438.148438.035156-.011719.070312-.019532.109374-.019532h2.644532c.191406 0 .34375.15625.34375.34375v-.246094c0-.191406-.152344-.34375-.34375-.34375zm-.886718.332032c-.003906 0-.007813 0-.011719 0-.117187.003906-.222656.070312-.28125.171875l-1.324219 2.316406c-.054687.09375-.054687.199219-.019531.292969.003906-.015625.011719-.03125.019531-.046875l1.324219-2.316407c.058594-.101562.164063-.164062.28125-.171874h.011719c.125 0 .242187.0625.300781.171874l1.324219 2.316407c.007812.015625.015625.03125.023437.046875.035157-.09375.03125-.199219-.023437-.292969l-1.324219-2.316406c-.058594-.109375-.175781-.175781-.300781-.171875zm2.21875 2.765625c-.015625.082031-.046875.160156-.089844.234375h.09375c.011719-.078125.011719-.15625-.003906-.234375zm0 0" fill="#fff" fill-opacity=".392157"/><path d="m7.460938 6.484375c-.207032 0-.394532.09375-.519532.238281-.023437.027344-.042968.0625-.058594.097656-.039062-.003906-.078124-.003906-.117187-.003906-.234375.011719-.445313.140625-.5625.34375l-.394531.691406c-.191406-.25-.316406-.554687-.339844-.886718-.003906.039062-.003906.082031-.003906.125 0 .378906.128906.730468.34375 1.011718l.394531-.691406c.117187-.203125.328125-.332031.5625-.34375.039063-.003906.078125 0 .117187.003906.015626-.035156.035157-.070312.058594-.101562.125-.144531.3125-.234375.519532-.234375h1.296874c-.019531-.085937-.042968-.167969-.074218-.25zm.1875.75c-.058594.019531-.109376.054687-.148438.097656.078125.058594.144531.128907.191406.214844l1.324219 2.316406c.035156.066407.0625.132813.074219.199219.027344-.148438.007812-.304688-.074219-.445312v-.003907l-1.324219-2.3125c-.011718-.023437-.027344-.046875-.042968-.066406zm3.097656 2.722656c0 .1875-.152344.339844-.34375.339844h-1.308594c-.015625.089844-.046875.171875-.09375.25h1.402344c.191406 0 .34375-.152344.34375-.34375zm-5.511719.121094c-.085937.21875.074219.46875.320313.46875h2.644531c.246093 0 .40625-.25.320312-.46875-.050781.125-.167969.21875-.320312.21875h-2.644531c-.152344 0-.273438-.09375-.320313-.21875zm0 0" fill-opacity=".235294"/><path d="m228.103217-49.140839c-29.247207 0-53.244915 23.997709-53.244915 53.369904 0 12.123842 4.124606 23.372768 10.99895 32.371908l12.623794-22.122887c3.749642-6.499379 10.498997-10.748974 17.998281-10.99895 1.249881-.124988 2.499762-.124988 3.749642.124988.499952-1.24988 1.124893-2.249785 1.874821-3.249689 3.999618-4.624559 9.999045-7.499284 16.623413-7.499284h41.496037c-5.249499-23.997709-26.622458-41.99599-52.120023-41.99599zm20.123079 57.369522c-3.24969 0-6.249404 1.499856-8.249213 3.749642 2.499762 1.874821 4.624559 4.124606 6.124415 6.874343l42.370954 74.117922c4.124606 7.12432 3.374678 15.373532-.499952 21.872912h44.870715c6.124415 0 10.99895-4.874535 10.99895-10.99895v-84.61692c0-6.124415-4.874535-10.998949-10.99895-10.998949zm-28.372291 10.623985c-.124988 0-.249976 0-.374964 0-3.749642.124988-7.12432 2.249785-8.999141 5.499475l-42.370954 74.117922c-4.124606 7.249308 1.124893 16.373437 9.624081 16.373437h84.61692c8.3742 0 13.748687-9.124129 9.499093-16.373437l-42.370954-74.117922c-1.874821-3.499666-5.624463-5.624463-9.624081-5.499475zm0 0" fill="none" stroke="#212121" stroke-linecap="round" stroke-linejoin="round" stroke-width="3" transform="matrix(.031253 0 0 .031253 0 6.719392)"/></svg>

<?xml version="1.0" encoding="UTF-8"?>
<svg xmlns="http://www.w3.org/2000/svg" xmlns:xlink="http://www.w3.org/1999/xlink" width="16px" height="16px" viewBox="0 0 16 16" version="1.1">
<defs>
<linearGradient id="linear0" gradientUnits="userSpaceOnUse" x1="254" y1="233.5" x2="254" y2="254.666672" gradientTransform="matrix(0.0372059,0,0,0.031253,-1.315168,6.719393)">
<stop offset="0" style="stop-color:rgb(0%,0%,0%);stop-opacity:0.27451;"/>
<stop offset="1" style="stop-color:rgb(0%,0%,0%);stop-opacity:0;"/>
</linearGradient>
<radialGradient id="radial0" gradientUnits="userSpaceOnUse" cx="450.908936" cy="189.579361" fx="450.908936" fy="189.579361" r="21.166656" gradientTransform="matrix(0.0000000870852,-0.0390662,-0.0703192,-0.0000000507693,25.238424,31.797666)">
<stop offset="0" style="stop-color:rgb(0%,0%,0%);stop-opacity:0.313726;"/>
<stop offset="0.222222" style="stop-color:rgb(0%,0%,0%);stop-opacity:0.27451;"/>
<stop offset="1" style="stop-color:rgb(0%,0%,0%);stop-opacity:0;"/>
</radialGradient>
<radialGradient id="radial1" gradientUnits="userSpaceOnUse" cx="450.908936" cy="189.579361" fx="450.908936" fy="189.579361" r="21.166656" gradientTransform="matrix(-0.0000000870852,0.0390662,0.0703192,0.0000000507693,-9.361907,-3.763739)">
<stop offset="0" style="stop-color:rgb(0%,0%,0%);stop-opacity:0.313726;"/>
<stop offset="0.222222" style="stop-color:rgb(0%,0%,0%);stop-opacity:0.27451;"/>
<stop offset="1" style="stop-color:rgb(0%,0%,0%);stop-opacity:0;"/>
</radialGradient>
<radialGradient id="radial2" gradientUnits="userSpaceOnUse" cx="450.908936" cy="189.579361" fx="450.908936" fy="189.579361" r="21.166656" gradientTransform="matrix(-0.0000000870852,-0.0390662,0.0703192,-0.0000000507693,-9.361907,31.797666)">
<stop offset="0" style="stop-color:rgb(0%,0%,0%);stop-opacity:0.313726;"/>
<stop offset="0.222222" style="stop-color:rgb(0%,0%,0%);stop-opacity:0.27451;"/>
<stop offset="1" style="stop-color:rgb(0%,0%,0%);stop-opacity:0;"/>
</radialGradient>
<radialGradient id="radial3" gradientUnits="userSpaceOnUse" cx="450.908936" cy="189.579361" fx="450.908936" fy="189.579361" r="21.166656" gradientTransform="matrix(0.0000000870852,0.0390662,-0.0703192,0.0000000507693,25.238423,-3.76374)">
<stop offset="0" style="stop-color:rgb(0%,0%,0%);stop-opacity:0.313726;"/>
<stop offset="0.222222" style="stop-color:rgb(0%,0%,0%);stop-opacity:0.27451;"/>
<stop offset="1" style="stop-color:rgb(0%,0%,0%);stop-opacity:0;"/>
</radialGradient>
<linearGradient id="linear1" gradientUnits="userSpaceOnUse" x1="254" y1="233.5" x2="254" y2="-168.666672" gradientTransform="matrix(0.031253,0,0,0.031253,0,6.719391)">
<stop offset="0" style="stop-color:rgb(87.843138%,87.843138%,87.843138%);stop-opacity:1;"/>
<stop offset="1" style="stop-color:rgb(93.333334%,93.333334%,93.333334%);stop-opacity:1;"/>
</linearGradient>
<linearGradient id="linear2" gradientUnits="userSpaceOnUse" x1="413.712219" y1="-474.701691" x2="413.712219" y2="-72.535034" gradientTransform="matrix(0.031253,0,0,0.031253,0,6.719391)">
<stop offset="0" style="stop-color:rgb(100%,65.490198%,14.901961%);stop-opacity:1;"/>
<stop offset="1" style="stop-color:rgb(100%,71.764708%,30.19608%);stop-opacity:1;"/>
</linearGradient>
<linearGradient id="linear3" gradientUnits="userSpaceOnUse" x1="222.25" y1="106.5" x2="222.25" y2="0.666667" gradientTransform="matrix(0.031253,0,0,0.031253,0.03521,6.955204)">
<stop offset="0" style="stop-color:rgb(100%,65.490198%,14.901961%);stop-opacity:1;"/>
<stop offset="1" style="stop-color:rgb(100%,71.764708%,30.19608%);stop-opacity:1;"/>
</linearGradient>
</defs>
<g id="surface1">
<path style=" stroke:none;fill-rule:nonzero;fill:url(#linear0);" d="M 3.804688 14.015625 L 12.074219 14.015625 L 12.074219 14.679688 L 3.804688 14.679688 Z M 3.804688 14.015625 "/>
<path style=" stroke:none;fill-rule:nonzero;fill:url(#radial0);" d="M 12.074219 14.015625 L 13.394531 14.015625 L 13.394531 13.355469 L 12.074219 13.355469 Z M 12.074219 14.015625 "/>
<path style=" stroke:none;fill-rule:nonzero;fill:url(#radial1);" d="M 3.804688 14.015625 L 2.480469 14.015625 L 2.480469 14.679688 L 3.804688 14.679688 Z M 3.804688 14.015625 "/>
<path style=" stroke:none;fill-rule:nonzero;fill:url(#radial2);" d="M 3.804688 14.015625 L 2.480469 14.015625 L 2.480469 13.355469 L 3.804688 13.355469 Z M 3.804688 14.015625 "/>
<path style=" stroke:none;fill-rule:nonzero;fill:url(#radial3);" d="M 12.074219 14.015625 L 13.394531 14.015625 L 13.394531 14.679688 L 12.074219 14.679688 Z M 12.074219 14.015625 "/>
<path style=" stroke:none;fill-rule:nonzero;fill:url(#linear1);" d="M 9.953125 1.449219 L 3.308594 1.449219 C 2.941406 1.449219 2.644531 1.742188 2.644531 2.109375 L 2.644531 13.355469 C 2.644531 13.722656 2.941406 14.015625 3.308594 14.015625 L 12.570312 14.015625 C 12.933594 14.015625 13.230469 13.722656 13.230469 13.355469 L 13.230469 4.453125 Z M 9.953125 1.449219 "/>
<path style=" stroke:none;fill-rule:nonzero;fill:url(#linear2);" d="M 9.953125 1.449219 L 13.230469 4.453125 L 13.230469 2.109375 C 13.230469 1.742188 12.933594 1.449219 12.570312 1.449219 Z M 9.953125 1.449219 "/>
<path style=" stroke:none;fill-rule:nonzero;fill:url(#linear3);" d="M 7.097656 5.179688 C 6.179688 5.179688 5.429688 5.929688 5.429688 6.847656 C 5.429688 7.226562 5.558594 7.578125 5.773438 7.859375 L 6.167969 7.167969 C 6.285156 6.964844 6.5 6.835938 6.730469 6.824219 C 6.769531 6.820312 6.8125 6.824219 6.847656 6.828125 C 6.863281 6.792969 6.882812 6.757812 6.910156 6.730469 C 7.035156 6.585938 7.222656 6.492188 7.425781 6.492188 L 8.722656 6.492188 C 8.558594 5.746094 7.890625 5.179688 7.097656 5.179688 Z M 7.722656 6.972656 C 7.621094 6.972656 7.527344 7.019531 7.464844 7.09375 C 7.542969 7.148438 7.609375 7.21875 7.660156 7.304688 L 7.660156 7.308594 L 8.980469 9.621094 C 9.109375 9.84375 9.085938 10.105469 8.96875 10.304688 L 10.371094 10.304688 C 10.558594 10.304688 10.714844 10.152344 10.714844 9.960938 L 10.714844 7.316406 C 10.714844 7.125 10.558594 6.972656 10.371094 6.972656 Z M 6.835938 7.304688 C 6.832031 7.304688 6.828125 7.304688 6.824219 7.304688 C 6.707031 7.308594 6.601562 7.375 6.542969 7.476562 L 5.222656 9.792969 C 5.089844 10.019531 5.253906 10.304688 5.519531 10.304688 L 8.164062 10.304688 C 8.429688 10.304688 8.59375 10.019531 8.460938 9.792969 L 7.140625 7.476562 C 7.078125 7.367188 6.960938 7.300781 6.835938 7.304688 Z M 6.835938 7.304688 "/>
<path style=" stroke:none;fill-rule:nonzero;fill:rgb(0%,0%,0%);fill-opacity:0.235294;" d="M 2.644531 13.191406 L 2.644531 13.355469 C 2.644531 13.722656 2.941406 14.015625 3.308594 14.015625 L 12.570312 14.015625 C 12.933594 14.015625 13.230469 13.722656 13.230469 13.355469 L 13.230469 13.191406 C 13.230469 13.554688 12.933594 13.851562 12.570312 13.851562 L 3.308594 13.851562 C 2.941406 13.851562 2.644531 13.554688 2.644531 13.191406 Z M 2.644531 13.191406 "/>
<path style=" stroke:none;fill-rule:nonzero;fill:rgb(100%,100%,100%);fill-opacity:1;" d="M 3.308594 1.449219 C 2.941406 1.449219 2.644531 1.742188 2.644531 2.109375 L 2.644531 2.441406 C 2.644531 2.074219 2.941406 1.777344 3.308594 1.777344 L 9.953125 1.777344 L 13.230469 4.785156 L 13.230469 4.453125 L 9.953125 1.449219 Z M 3.308594 1.449219 "/>
<path style=" stroke:none;fill-rule:nonzero;fill:rgb(100%,100%,100%);fill-opacity:0.392157;" d="M 9.953125 1.449219 L 10.3125 1.777344 L 12.570312 1.777344 C 12.933594 1.777344 13.230469 2.074219 13.230469 2.441406 L 13.230469 2.109375 C 13.230469 1.742188 12.933594 1.449219 12.570312 1.449219 Z M 9.953125 1.449219 "/>
<path style=" stroke:none;fill-rule:nonzero;fill:rgb(0%,0%,0%);fill-opacity:0.235294;" d="M 9.953125 1.449219 L 13.230469 4.453125 L 13.230469 4.175781 L 10.253906 1.449219 Z M 9.953125 1.449219 "/>
<path style="fill:none;stroke-width:11.338583;stroke-linecap:round;stroke-linejoin:round;stroke:rgb(12.941177%,12.941177%,12.941177%);stroke-opacity:1;stroke-miterlimit:4;" d="M 1203.664647 175.258863 L 400.119292 175.258863 C 355.714081 175.258863 319.811996 210.688553 319.811996 255.093763 L 319.811996 1615.121439 C 319.811996 1659.52665 355.714081 1694.956339 400.119292 1694.956339 L 1520.169872 1694.956339 C 1564.102686 1694.956339 1600.004772 1659.52665 1600.004772 1615.121439 L 1600.004772 538.531278 Z M 1203.664647 175.258863 " transform="matrix(0.00826902,0,0,0.00826902,0,0)"/>
<path style="fill:none;stroke-width:3;stroke-linecap:round;stroke-linejoin:round;stroke:rgb(12.941177%,12.941177%,12.941177%);stroke-opacity:1;stroke-miterlimit:4;" d="M 318.469588 -168.629428 L 423.334574 -72.513607 L 423.334574 -147.506445 C 423.334574 -159.255323 413.835481 -168.629428 402.211591 -168.629428 Z M 318.469588 -168.629428 " transform="matrix(0.031253,0,0,0.031253,0,6.719392)"/>
<path style=" stroke:none;fill-rule:nonzero;fill:rgb(100%,100%,100%);fill-opacity:0.392157;" d="M 7.097656 5.179688 C 6.179688 5.179688 5.429688 5.929688 5.429688 6.847656 C 5.429688 6.890625 5.433594 6.929688 5.433594 6.972656 C 5.5 6.113281 6.222656 5.429688 7.097656 5.429688 C 7.800781 5.429688 8.40625 5.871094 8.648438 6.492188 L 8.722656 6.492188 C 8.558594 5.746094 7.890625 5.179688 7.097656 5.179688 Z M 7.722656 6.972656 C 7.621094 6.972656 7.527344 7.019531 7.464844 7.09375 C 7.523438 7.132812 7.570312 7.183594 7.613281 7.238281 C 7.648438 7.226562 7.6875 7.222656 7.722656 7.222656 L 10.371094 7.222656 C 10.558594 7.222656 10.714844 7.375 10.714844 7.5625 L 10.714844 7.316406 C 10.714844 7.125 10.558594 6.972656 10.371094 6.972656 Z M 6.835938 7.304688 C 6.832031 7.304688 6.828125 7.304688 6.824219 7.304688 C 6.707031 7.308594 6.601562 7.375 6.542969 7.476562 L 5.222656 9.792969 C 5.164062 9.890625 5.164062 9.996094 5.199219 10.085938 C 5.207031 10.070312 5.210938 10.054688 5.222656 10.039062 L 6.542969 7.726562 C 6.601562 7.625 6.707031 7.558594 6.824219 7.550781 C 6.828125 7.550781 6.832031 7.550781 6.835938 7.550781 C 6.960938 7.550781 7.078125 7.617188 7.140625 7.726562 L 8.460938 10.039062 C 8.472656 10.054688 8.480469 10.070312 8.484375 10.085938 C 8.519531 9.996094 8.519531 9.890625 8.460938 9.792969 L 7.140625 7.476562 C 7.078125 7.367188 6.960938 7.300781 6.835938 7.304688 Z M 9.054688 10.070312 C 9.039062 10.152344 9.011719 10.234375 8.96875 10.304688 L 9.058594 10.304688 C 9.070312 10.226562 9.070312 10.148438 9.054688 10.070312 Z M 9.054688 10.070312 "/>
<path style=" stroke:none;fill-rule:nonzero;fill:rgb(0%,0%,0%);fill-opacity:0.235294;" d="M 7.425781 6.484375 C 7.222656 6.484375 7.035156 6.574219 6.910156 6.71875 C 6.882812 6.75 6.863281 6.78125 6.847656 6.820312 C 6.8125 6.8125 6.769531 6.8125 6.730469 6.8125 C 6.5 6.824219 6.285156 6.957031 6.167969 7.160156 L 5.773438 7.851562 C 5.582031 7.601562 5.460938 7.292969 5.433594 6.960938 C 5.433594 7.003906 5.429688 7.042969 5.429688 7.085938 C 5.429688 7.464844 5.558594 7.816406 5.773438 8.097656 L 6.167969 7.40625 C 6.285156 7.203125 6.5 7.074219 6.730469 7.0625 C 6.769531 7.058594 6.8125 7.0625 6.847656 7.066406 C 6.863281 7.03125 6.882812 6.996094 6.910156 6.96875 C 7.035156 6.824219 7.222656 6.730469 7.425781 6.730469 L 8.722656 6.730469 C 8.707031 6.644531 8.679688 6.5625 8.648438 6.484375 Z M 7.613281 7.230469 C 7.554688 7.25 7.503906 7.285156 7.464844 7.332031 C 7.542969 7.386719 7.609375 7.460938 7.660156 7.546875 L 8.980469 9.859375 C 9.019531 9.925781 9.042969 9.992188 9.054688 10.0625 C 9.082031 9.914062 9.0625 9.753906 8.980469 9.613281 L 7.660156 7.296875 C 7.644531 7.273438 7.628906 7.25 7.613281 7.230469 Z M 10.714844 9.953125 C 10.714844 10.140625 10.558594 10.296875 10.371094 10.296875 L 9.058594 10.296875 C 9.042969 10.382812 9.011719 10.46875 8.96875 10.542969 L 10.371094 10.542969 C 10.558594 10.542969 10.714844 10.390625 10.714844 10.199219 Z M 5.199219 10.078125 C 5.113281 10.296875 5.273438 10.542969 5.519531 10.542969 L 8.164062 10.542969 C 8.410156 10.542969 8.570312 10.296875 8.484375 10.078125 C 8.4375 10.199219 8.316406 10.296875 8.164062 10.296875 L 5.519531 10.296875 C 5.367188 10.296875 5.246094 10.199219 5.199219 10.078125 Z M 5.199219 10.078125 "/>
<path style="fill:none;stroke-width:3;stroke-linecap:round;stroke-linejoin:round;stroke:rgb(12.941177%,12.941177%,12.941177%);stroke-opacity:1;stroke-miterlimit:4;" d="M 227.103313 -49.265827 C 197.731118 -49.265827 173.733409 -25.268118 173.733409 4.104077 C 173.733409 16.227919 177.858015 27.476845 184.732359 36.475985 L 197.356153 14.353098 C 201.105795 7.853719 207.980139 3.729112 215.354435 3.354148 C 216.604315 3.22916 217.979184 3.354148 219.104077 3.479136 C 219.604029 2.354244 220.228969 1.229351 221.103886 0.354435 C 225.103504 -4.270124 231.102931 -7.269837 237.60231 -7.269837 L 279.098347 -7.269837 C 273.848849 -31.142558 252.47589 -49.265827 227.103313 -49.265827 Z M 247.101403 8.103695 C 243.851713 8.103695 240.852 9.603551 238.852191 11.978325 C 241.351952 13.728158 243.476749 15.977943 245.101594 18.72768 L 245.101594 18.852668 L 287.34756 92.845602 C 291.472166 99.969922 290.722237 108.344122 286.972595 114.718513 L 331.843311 114.718513 C 337.842738 114.718513 342.84226 109.843979 342.84226 103.719564 L 342.84226 19.102644 C 342.84226 12.978229 337.842738 8.103695 331.843311 8.103695 Z M 218.729112 18.72768 C 218.604124 18.72768 218.479136 18.72768 218.354148 18.72768 C 214.604506 18.852668 211.229829 20.977465 209.355008 24.227155 L 167.109042 98.345077 C 162.859448 105.594385 168.108946 114.718513 176.608135 114.718513 L 261.225054 114.718513 C 269.724243 114.718513 274.973741 105.594385 270.724147 98.345077 L 228.478181 24.227155 C 226.478372 20.727489 222.72873 18.602692 218.729112 18.72768 Z M 218.729112 18.72768 " transform="matrix(0.031253,0,0,0.031253,0,6.719392)"/>
</g>
</svg>
